src/img/feature-1.svg

<svg width="64" height="48" fill="none" xmlns="http://www.w3.org/2000/svg"><path fill-rule="evenodd" clip-rule="evenodd" d="M0 47.5h64v-9H0v9z" fill="#699635"/><path fill-rule="evenodd" clip-rule="evenodd" d="M0 38.499h64v-38H0v38z" fill="#83BF4F"/><path fill-rule="evenodd" clip-rule="evenodd" d="M24 47.5h16v-9H24v9z" fill="#94989B"/><path fill-rule="evenodd" clip-rule="evenodd" d="M4 34.499h56v-30H4v30z" fill="#699635"/><path fill-rule="evenodd" clip-rule="evenodd" d="M7 31.499h50v-24H7v24z" fill="#83BF4F"/><path fill-rule="evenodd" clip-rule="evenodd" d="M53 19.5a8 8 0 1 1-16 0 8 8 0 0 1 16 0z" fill="#699635"/><path fill-rule="evenodd" clip-rule="evenodd" d="M24 38.499h16v-38H24v38z" fill="#D0D0D0"/><path fill-rule="evenodd" clip-rule="evenodd" d="M16 18.5c-1.103 0-2-.897-2-2s.897-2 2-2 2 .896 2 2h2c0-1.858-1.279-3.41-3-3.857V11.5h-2v1.143c-1.721.447-3 1.999-3 3.857 0 2.206 1.794 4 4 4 1.103 0 2 .896 2 2s-.897 2-2 2-2-.896-2-2h-2c0 1.858 1.279 3.41 3 3.857V27.5h2v-1.143c1.721-.447 3-1.999 3-3.857 0-2.205-1.794-4-4-4z" fill="#fff"/></svg>

<svg width="64" height="48" viewBox="0 0 64 48" fill="none" xmlns="http://www.w3.org/2000/svg">
<path fill-rule="evenodd" clip-rule="evenodd" d="M0 47.5H64V38.5H0V47.5Z" fill="#699635"/>
<path fill-rule="evenodd" clip-rule="evenodd" d="M0 38.499H64V0.499023H0V38.499Z" fill="#83BF4F"/>
<path fill-rule="evenodd" clip-rule="evenodd" d="M24 47.5H40V38.5H24V47.5Z" fill="#94989B"/>
<path fill-rule="evenodd" clip-rule="evenodd" d="M4 34.499H60V4.49902H4V34.499Z" fill="#699635"/>
<path fill-rule="evenodd" clip-rule="evenodd" d="M7 31.499H57V7.49902H7V31.499Z" fill="#83BF4F"/>
<path fill-rule="evenodd" clip-rule="evenodd" d="M53 19.5C53 23.9183 49.4183 27.5 45 27.5C40.5817 27.5 37 23.9183 37 19.5C37 15.0818 40.5817 11.5 45 11.5C49.4183 11.5 53 15.0818 53 19.5Z" fill="#699635"/>
<path fill-rule="evenodd" clip-rule="evenodd" d="M24 38.499H40V0.499023H24V38.499Z" fill="#D0D0D0"/>
<path fill-rule="evenodd" clip-rule="evenodd" d="M16 18.5C14.897 18.5 14 17.603 14 16.5C14 15.397 14.897 14.5 16 14.5C17.103 14.5 18 15.396 18 16.5H20C20 14.642 18.721 13.09 17 12.643V11.5H15V12.643C13.279 13.09 12 14.642 12 16.5C12 18.706 13.794 20.5 16 20.5C17.103 20.5 18 21.396 18 22.5C18 23.604 17.103 24.5 16 24.5C14.897 24.5 14 23.604 14 22.5H12C12 24.358 13.279 25.91 15 26.357V27.5H17V26.357C18.721 25.91 20 24.358 20 22.5C20 20.295 18.206 18.5 16 18.5Z" fill="white"/>
</svg>
